X:1
T:Aeterna Christi Munera, LM
T:Melody from Guidetti’s Directorium Chori, 1582
T:Aeterna Christi Munera, LM
T:Public Domain
C:Melody from Guidetti&#8217;s Directorium Chori, 1582
Z:Public Domain
%%score ( 1 2 ) ( 3 4 )
L:1/8
M:none
K:F
V:1 treble 
V:2 treble 
V:3 bass 
V:4 bass 
V:1
 [CF]2 [DF]2 [EG]2 | [CFA]6 [DF]2 | G2 A2 B2 A2 [B,DG]3 [A,DF] | [A,DF]6 | (F2 A2) [FB]2 | %5
 [Ec]2 d2 c2 A2 B2 | [EGc]6 | [FAc]2 [FAc]2 [EGc]2 | [FBd]2 [EGc]2 [DFB]2 [CFA]2 | %9
 G2 A2 B2 A2 [B,DG]4 [A,DF]4 | [DF]2 [CF]2 (DE) | [FA]6 [DF]2 | G2 A2 B2 A2 [CEG]3 [A,CF] | %13
 [A,CF]6 |] %14
V:2
 x6 | x8 | [B,D]8- x4 | x6 | [DF]4 x2 | x2 [DF]8 | x6 | x6 | x8 | [B,D]8 x8 | x4 G2 | x8 | D8 x4 | %13
 x6 |] %14
V:3
 [F,A,]2 [D,F,A,]2 [C,G,C]2 | [F,,F,]6 [D,A,]2 | G,8- G,3 [D,F,] | [D,F,]6 | (A,4 B,2) | %5
 [C,G,C]2 B,,4 D,4 | [C,G,]6 | [F,C]2 (F,2 C,2) | [B,,B,]2 [C,G,]2 [D,B,]2 [F,A,]2 | %9
 [G,,G,]8- [G,,G,]4 [D,F,]4 | B,,2 A,,2 [G,,B,]2 | [F,,A,]6 [D,A,]2 | [G,,B,]8 [C,G,]3 [F,,C,F,] | %13
 [F,,C,F,]6 |] %14
V:4
 x6 | x8 | G,8- G,3 x | x6 | D,6 | x2 F,8 | x6 | x2 C4 | x8 | x16 | F,4 x2 | x8 | x12 | x6 |] %14

